X:1
T:C minor                    Alexander Gillet, 1796
T:Isaac Watts, 1717 (Psalm 51, Part 1)                         88. 88. (L. M.)
T:Plainfeld
T:Transcribed from Law's Christian Harmony, 1796.
%%score [ 1 2 3 ( 4 5 ) ]
L:1/8
Q:1/4=140
M:4/4
K:Eb
V:1 treble nm="Tr." snm="Tr."
V:2 treble nm="C." snm="C."
V:3 treble-8 nm="T." snm="T."
V:4 bass nm="B." snm="B."
V:5 bass 
V:1
 G4 | c4 (d3 c) | B4 z2 G2 | (c2 B2) (A2 G2) | G4 G4 | (E2 F2) (G2 A2) | G4 C4 | (3(c2 B2 A2) G4 | %8
w: 1. Show|pi- ty, *|Lord, O|Lord, * for- *|give; Let|a * re- *|pen- ting|sin- * * ner|
w: ||||||||
w: ||||||||
 G8 | z4 C4 | E4 F4 | G4 z2 G2 | c4 d4 | e4 G4 | E4 E4 | C4 (E3 F) | (G2 A2) G4 | G8 | z4 (G2 c2) | %19
w: live:|Are|not thy|mer- cies|large and|free? May|not a|sin- ner *|trust * in|thee?|My *|
w: |||||||||||
w: |||||||||||
 c4 (f e3) | d4 z2 d2 | c4 (d c3) | =B4 z2 G2 | (e2 d2) (c2 B2) | e4 e4 | (a2 g2) (f2 e2) | d8 | %27
w: crimes are *|great, but|not sur- *|pass The|power * and *|glo- ry|of * thy *|grace:|
w: ||||||||
w: ||||||||
 z4 (e2 c2) | d4 (G2 c2) | B4 (A2 G2) | (F2 E2) (D2 C2) | D8- | D4 C4 | G4 E4 | B4 (d3 c) | %35
w: Great *|God, thy *|na- ture *|hath * no *|bound;|* So|let thy|par- doning *|
w: ||||||||
w: ||||||||
 (B2 A2) (G2 F2) | G8 | z4 (3(g2 f2 e2) | e4 (3(c2 d2 e2) | d4 (c2 e2) | (f2 e2) (d2 c2) | B8- | %42
w: love * be *|found.|1. Great * *|God, thy * *|na- ture *|hath * no *|bound, |
w: ||2. Lord, * *|should thy * *|judg- ment *|grow * se- *|vere, |
w: ||3. Would * *|light on * *|some sweet *|pro- * mise *|there, |
 B8- | B4 d4 | G4 F4 | E6 B2 | (3(c2 B2 A2 G4) | G8 | G8 |] %49
w: _|* So|let thy|par- doning|love  _ _ _|be|found.|
w: _|* I|am con-|demned, but|thou  _ _ _|art|clear.|
w: _|* Some|sure sup-|port a-|gainst  _ _ _|des-|pair.|
V:2
 G4 | E4 D4 | E4 z2 G2 | A4 G4 | G4 (G2 E2) | E4 (B2 G2) | G4 (C3 E) | (D2 C2) =B,4 | C8 | z4 E4 | %10
w: 2. O|wash my|soul from|eve- ry|sin, And *|make my *|guil- ty *|con- * science|clean;|Here|
w: ||||||||||
w: ||||||||||
 C4 D4 | E4 z2 G2 | (G2 F2) (E2 D2) | E4 (G2 E2) | E4 (G2 C2) | C4 B,4 | (E2 D2) (C2 =B,2) | C8 | %18
w: on my|heart the|bur- * den *|lies, And *|past of- *|fen- ses|pain * my *|eyes.|
w: ||||||||
w: ||||||||
 z4 E4 | C4 C4 | G4 z2 B2 | E4 F4 | G4 z2 G2 | E4 E4 | E4 G4 | G4 (=B2 c2) | =B8 | z4 (c2 G2) | %28
w: My|lips, with|shame my|sins con-|fess A-|gainst thy|law, a-|gainst thy *|grace:|Lord, *|
w: ||||||||||
w: ||||||||||
 G4 (G2 E2) | B4 (A2 G2) | (F2 E2) (D2 C2) | =B,8- | B,4 E4 | (G2 E2) (B2 G2) | G4 (E2 C2) | %35
w: should thy *|judg- ment *|grow * se- *|vere,|* I|am * con- *|demned, but *|
w: |||||||
w: |||||||
 (G2 F2) (E2 D2) | E8 | z4 (3(G2 A2 B2) | c4 (G2 c2) | B4 (B2 c2) | (d2 c2) (B2 A2) | G4 z2 E2 | %42
w: thou * art *|clear.|1. Great * *|God, thy *|na- ture *|hath * no *|bound, So|
w: ||2. Lord, * *|should thy *|judg- ment *|grow * se- *|vere. I|
w: ||3. Would * *|light on *|some sweet *|pro- * mise *|there, Some|
 (G2 F2) (E2 D2) | E4 F4 | G4 G4 | G6 F2 | (E2 D2 C4) | =B,8 | C8 |] %49
w: let * thy *|par- doning|love be|found, thy|love  _ _|be|found.|
w: am * con- *|demned, but|thou art|clear, but|thou  _ _|art|clear.|
w: sure * sup- *|port a-|gainst des-|pair. a-|gainst  _ _|des-|pair.|
V:3
 C4 | E4 F4 | G4 z2 B2 | (e2 d2) (c2 =B2) | c4 (B2 G2) | G4 (G2 C2) | C4 (E3 G) | (F2 E2) D4 | C8 | %9
w: 3. Should|sud- den|ven- geance|seize * my *|breath, I *|must pro- *|nounce thee *|just * in|death;|
 z4 G4 | E4 F4 | G4 z2 B2 | (e2 d2) (c2 =B2) | c4 (c2 G2) | G4 (B2 E2) | E4 (G3 F) | E4 D4 | C8 | %18
w: And|if my|soul were|sent * to *|hell, Thy *|right- eous *|law ap- *|proves it|well.|
 z4 G4 | c4 (d c3) | =B4 z2 B2 | e4 (f e3) | d4 z2 c2 | (g2 f2) (e2 d2) | e4 e4 | (f2 e2) (d2 c2) | %26
w: Yet|save a *|trem- bling|sin- ner, *|Lord, Whose|hope, * still *|ho- vering|round * thy *|
 d8 | z4 (G2 c2) | =B4 (E2 GA) | G4 (A2 G2) | (F2 E2) (D2 C2) | G8- | G4 B4 | (E2 C2) (G2 E2) | %34
w: word,|Would *|light on * *|some sweet *|pro- * mise *|there,|* Some|sure * sup- *|
 (B2 G2) (F2 E2) | (e2 d2) (c2 =B2) | c8 | z4 (3(e2 f2 g2) | g4 (3(g2 f2 e2) | f4 (e2 c2) | %40
w: port * a- *|gainst * des- *|pair.||||
 d4 (f2 d2) | e4 z2 e2 | B6 d2 | G4 B4 | E4 F4 | G6 F2 | (3(A2 G2 F2 E4) | D8 | C8 |] %49
w: |||||||||
V:4
 C,4 | C,4 B,,4 | E,4 z2 E,2 | F,4 G,4 | C,4 C,4 | (C,2 D,2) (E,2 F,2) | G,4 (G,3 A,) | G,4 G,,4 | %8
w: ||||||||
w: ||||||||
w: ||||||||
 C,8 | z4 E,4 | C,4 (C,2 B,,2) | E,4 z2 E,2 | (F,2 G,2) G,4 | C,4 C4 | (C,2 D,2) (E,3 F,) | %15
w: |||||||
w: |||||||
w: |||||||
 G,4 (G,3 A,) | G,4 G,,4 | C,8 | z4 C,4 | E,4 F,4 | G,4 z2 E,2 | %21
w: ||||||
w: ||||||
w: ||||||
"^________________________________\nEdited by B. C. Johnston, 2018.\nTop staff and third staff exchanged." (F,2 E,2) (D,2 C,2) | %22
w: |
w: |
w: |
 G,4 z2 G,2 | C4 C4 | C4 C4 | C4 (=B,2 C2) | G,8 | z4 (C2 G,2) | G,4 (B,2 E,2) | E,4 (A,2 G,2) | %30
w: ||||||||
w: ||||||||
w: ||||||||
 (F,2 E,2) (D,2 C,2) | G,,8- | G,,4 E,4 | C,4 C,4 | G,4 G,4 | G,,4 G,,4 | C,8 | z4 G,4 | %38
w: |||||||1. Great|
w: |||||||2. Lord,|
w: |||||||3. Would|
 C4 (C2 G,2) | B,4 (G,2 C2) | B,4 B,,4 | E,8- | E,8- | E,4 B,,4 | E,4 D,4 | C,6 F,2 | G,8 | G,,8 | %48
w: God, thy *|na- ture *|hath no|bound,|_|* So|let thy|par- doning|love|be|
w: should thy *|judg- ment *|grow se-|vere, |_|* I|am con-|demned, but|thou|art|
w: light on *|some sweet *|pro- mise|there, |_|* Some|sure sup-|port a-|gainst|des-|
 C,8 |] %49
w: found.|
w: clear.|
w: pair.|
V:5
 x4 | x8 | x8 | x8 | x8 | x8 | x8 | x8 | x8 | x8 | x8 | x8 | x8 | x8 | x8 | G,,8 | G,,4 x4 | x8 | %18
 x8 | x8 | x8 | x8 | G,,8 | C,8 | C,8 | C,8 | G,,8 | x8 | x8 | x8 | x8 | x8 | x8 | x8 | G,,8 | x8 | %36
 x8 | x8 | x8 | x8 | x8 | E,,8- | E,,8- | E,,4 x4 | x8 | x8 | G,,8 | x8 | x8 |] %49

